X:1
T:Trevithick's Tune
M:6/8
L:1/8
Q:1/4=175
K:Gb
c2c cde | a2a a3 | gag g2e | g3 e3 |
c2c cde | a2a a3 | gag g2e | d3 c3 |
c'2c' d'bg | b2c' d'3 | c'2c' c'ba | b3 d'3 |
c2c cde | a2a a3 | gag g2e | d3 c3 ]
